X:1
T:William Roberts
T:Contrition
%%score { ( 1 2 ) | ( 3 4 ) }
L:1/8
M:3/4
K:F
V:1 treble 
V:2 treble 
V:3 bass 
V:4 bass 
V:1
 F4 A2 | (A2 G2) F2 | (F2 D2) E2 | A6 | A4 c2 | (c2 G2) B2 | (A2 G2) D2 | (F2 E4) | F4 C2 | D4 D2 | %10
 C4 C2 | C6 | D8 C8 |] %13
V:2
 C4 F2 | D4 D2 | C4 C2 | C6 | F4 F2 | E4 E2 | (F2 D2) D2 | C6 | C4 C2 | B,4 _A,2 | (A,2 G,2) G,2 | %11
 A,6 | B,8 A,8 |] %13
V:3
 A,4 C2 | B,4 G,2 | (G,2 A,2) B,2 | A,6 | C4 C2 | C4 C2 | (C2 B,2) _A,2 | (A,2 G,4) | F,4 F,2 | %9
 F,4 F,2 | F,4 E,2 | F,6 | F,8 F,8 |] %13
V:4
 F,4 F,2 | B,,4 =B,,2 | C,4 C,2 | F,,6 | F,4 A,2 | G,4 C,2 | (F,2 B,,2) =B,,2 | C,6 | A,,4 A,,2 | %9
 B,,4 =B,,2 | C,4 C,2 | F,,6 | B,,8 F,,8 |] %13

